icons/evolvere-blue-folders-flat-vivid-dark-fallback/apps/64/gpodder.svg

<?xml version="1.0" encoding="UTF-8" standalone="no"?>
<!-- Created with Inkscape (http://www.inkscape.org/) -->

<svg
   xmlns:dc="http://purl.org/dc/elements/1.1/"
   xmlns:cc="http://creativecommons.org/ns#"
   xmlns:rdf="http://www.w3.org/1999/02/22-rdf-syntax-ns#"
   xmlns:svg="http://www.w3.org/2000/svg"
   xmlns="http://www.w3.org/2000/svg"
   xmlns:sodipodi="http://sodipodi.sourceforge.net/DTD/sodipodi-0.dtd"
   xmlns:inkscape="http://www.inkscape.org/namespaces/inkscape"
   width="64"
   height="64"
   id="svg13094"
   version="1.1"
   inkscape:version="0.91+devel r"
   sodipodi:docname="gpodder.svg">
  <sodipodi:namedview
     id="base"
     pagecolor="#ffffff"
     bordercolor="#666666"
     borderopacity="1.0"
     inkscape:pageopacity="0"
     inkscape:pageshadow="2"
     inkscape:zoom="11.313709"
     inkscape:cx="37.490722"
     inkscape:cy="33.6794"
     inkscape:document-units="px"
     inkscape:current-layer="svg13094"
     showgrid="true"
     inkscape:snap-bbox="true"
     inkscape:bbox-paths="true"
     inkscape:bbox-nodes="true"
     inkscape:snap-bbox-edge-midpoints="true"
     inkscape:snap-bbox-midpoints="true"
     inkscape:object-paths="true"
     inkscape:snap-intersection-paths="true"
     inkscape:object-nodes="true"
     inkscape:snap-smooth-nodes="true"
     inkscape:snap-midpoints="true"
     inkscape:snap-object-midpoints="true"
     inkscape:snap-center="true"
     showguides="true"
     inkscape:guide-bbox="true"
     inkscape:window-width="1920"
     inkscape:window-height="1023"
     inkscape:window-x="-10"
     inkscape:window-y="35"
     inkscape:window-maximized="1"
     inkscape:snap-global="false"
     fit-margin-top="0"
     fit-margin-left="0"
     fit-margin-right="0"
     fit-margin-bottom="0"
     showborder="true"
     inkscape:showpageshadow="false"
     inkscape:snap-page="true">
    <inkscape:grid
       type="xygrid"
       id="grid3075"
       empspacing="5"
       visible="true"
       enabled="true"
       snapvisiblegridlinesonly="true"
       originx="1.6362304e-08px"
       originy="18px" />
  </sodipodi:namedview>
  <defs
     id="defs13096" />
  <metadata
     id="metadata13099">
    <rdf:RDF>
      <cc:Work
         rdf:about="">
        <dc:format>image/svg+xml</dc:format>
        <dc:type
           rdf:resource="http://purl.org/dc/dcmitype/StillImage" />
        <dc:title></dc:title>
      </cc:Work>
    </rdf:RDF>
  </metadata>
  <path
     style="color:#000000;fill:#a324b8;fill-opacity:1;fill-rule:nonzero;stroke:none;stroke-width:2.28571415;marker:none;visibility:visible;display:inline;overflow:visible;enable-background:accumulate"
     d="M 0 4 L 0 34 L 0 62 L 2 64 L 32 64 L 62 64 L 64 62 L 64 34 L 64 4 L 32 4 L 0 4 z "
     id="path6498" />
  <path
     id="path3965"
     d="M 2,0 0,1 0,4 32,4 64,4 64,1 62,0 32,0 2,0 z"
     style="color:#000000;fill:#fa75ff;fill-opacity:1;fill-rule:nonzero;stroke:none;stroke-width:2.28571415000000000;marker:none;visibility:visible;display:inline;overflow:visible;enable-background:accumulate"
     inkscape:connector-curvature="0" />
  <path
     style="font-size:medium;font-style:normal;font-variant:normal;font-weight:normal;font-stretch:normal;text-indent:0;text-align:start;text-decoration:none;line-height:normal;letter-spacing:normal;word-spacing:normal;text-transform:none;direction:ltr;block-progression:tb;writing-mode:lr-tb;text-anchor:start;baseline-shift:baseline;color:#000000;fill:#fa88ff;fill-opacity:0.21960784;stroke:none;stroke-width:1.03448272;marker:none;visibility:visible;display:inline;overflow:visible;enable-background:accumulate;font-family:Sans;-inkscape-font-specification:Sans"
     d="M 0 4 L 0 4.78125 C 0.24761045 4.5192153 0.49601115 4.2558982 0.75 4 L 0 4 z M 3.65625 4 C 2.3611386 5.1859525 1.1397929 6.4434511 0 7.78125 L 0 9.40625 C 1.5693275 7.4462342 3.3203752 5.6409355 5.21875 4 L 3.65625 4 z M 8.375 4 C 5.1433503 6.4706472 2.3272983 9.4354223 0 12.78125 L 0 14.46875 C 2.6381243 10.368533 6.0374206 6.8184261 10 4 L 8.375 4 z M 13.6875 4 C 7.8854232 7.4452714 3.1159244 12.458836 0 18.46875 L 0 20.875 C 3.2044126 13.614024 8.8141165 7.6600666 15.8125 4 L 13.6875 4 z M 20.71875 4 C 10.502813 7.7092933 2.6553239 16.323277 0 27 L 0 33.34375 C 0.71825134 19.19316 10.653623 7.4567897 23.90625 4 L 20.71875 4 z M 40.09375 4 C 53.346377 7.4567897 63.281749 19.19316 64 33.34375 L 64 27 C 61.344676 16.323277 53.497187 7.7092933 43.28125 4 L 40.09375 4 z M 48.1875 4 C 55.185884 7.6600666 60.795588 13.614024 64 20.875 L 64 18.46875 C 60.884076 12.458836 56.114577 7.4452714 50.3125 4 L 48.1875 4 z M 54 4 C 57.96258 6.8184261 61.361876 10.368533 64 14.46875 L 64 12.78125 C 61.672702 9.4354223 58.85665 6.4706472 55.625 4 L 54 4 z M 58.78125 4 C 60.679625 5.6409355 62.430672 7.4462342 64 9.40625 L 64 7.78125 C 62.860207 6.4434511 61.638861 5.1859525 60.34375 4 L 58.78125 4 z M 63.25 4 C 63.503989 4.2558982 63.75239 4.5192153 64 4.78125 L 64 4 L 63.25 4 z M 32 5 C 15.437382 5 2 18.437381 2 35 C 2 48.894264 11.456282 60.59237 24.28125 64 L 32 64 C 15.977822 64 3 51.022178 3 35 C 3 18.977821 15.977822 6 32 6 C 48.022178 6 61 18.977821 61 35 C 61 51.022178 48.022178 64 32 64 L 39.71875 64 C 52.543718 60.59237 62 48.894264 62 35 C 62 18.437381 48.562618 5 32 5 z M 32 8 C 17.094235 8 5 20.094235 5 35 C 5 49.905765 17.094235 62 32 62 C 46.905766 62 59 49.905765 59 35 C 59 20.094235 46.905766 8 32 8 z M 32 9 C 46.365325 9 58 20.634676 58 35 C 58 49.365324 46.365325 61 32 61 C 17.634676 61 6 49.365324 6 35 C 6 20.634676 17.634676 9 32 9 z M 32 11 C 18.751089 11 8 21.751089 8 35 C 8 48.248912 18.751089 59 32 59 C 45.248912 59 56 48.248912 56 35 C 56 21.751089 45.248912 11 32 11 z M 32 12 C 44.708472 12 55 22.291529 55 35 C 55 47.708472 44.708472 58 32 58 C 19.291529 58 9 47.708472 9 35 C 9 22.291529 19.291529 12 32 12 z M 30.90625 14 C 19.814788 14.563521 11 23.770195 11 35 C 11 46.592057 20.407944 56 32 56 C 43.592057 56 53 46.592057 53 35 C 53 23.407943 43.592057 14 32 14 C 31.637748 14 31.264039 13.98182 30.90625 14 z M 32 15 C 43.051617 15 52 23.948384 52 35 C 52 46.051616 43.051617 55 32 55 C 20.948384 55 12 46.051616 12 35 C 12 23.948384 20.948384 15 32 15 z M 32 17 C 22.064797 17 14 25.064797 14 35 C 14 44.935203 22.064797 53 32 53 C 41.935203 53 50 44.935203 50 35 C 50 25.064797 41.935203 17 32 17 z M 32 18 C 41.394764 18 49 25.605237 49 35 C 49 44.394764 41.394764 52 32 52 C 22.605237 52 15 44.394764 15 35 C 15 25.605237 22.605237 18 32 18 z M 32 20 C 23.721651 20 17 26.721651 17 35 C 17 43.278349 23.721651 50 32 50 C 40.278349 50 47 43.278349 47 35 C 47 26.721651 40.278349 20 32 20 z M 32 21 C 39.737909 21 46 27.262091 46 35 C 46 42.737909 39.737909 49 32 49 C 24.262091 49 18 42.737909 18 35 C 18 27.262091 24.262091 21 32 21 z M 32 23 C 25.378505 23 20 28.378505 20 35 C 20 41.621494 25.378505 47 32 47 C 38.621495 47 44 41.621494 44 35 C 44 28.378505 38.621495 23 32 23 z M 32 24 C 38.081054 24 43 28.918945 43 35 C 43 41.081054 38.081054 46 32 46 C 25.918946 46 21 41.081054 21 35 C 21 28.918945 25.918946 24 32 24 z M 32 26 C 27.03536 26 23 30.03536 23 35 C 23 39.964641 27.03536 44 32 44 C 36.964641 44 41 39.964641 41 35 C 41 30.03536 36.964641 26 32 26 z M 32 27 C 36.424201 27 40 30.5758 40 35 C 40 39.424201 36.424201 43 32 43 C 27.5758 43 24 39.424201 24 35 C 24 30.5758 27.5758 27 32 27 z M 32 29 C 28.692213 29 26 31.692213 26 35 C 26 38.307786 28.692213 41 32 41 C 35.307786 41 38 38.307786 38 35 C 38 31.692213 35.307786 29 32 29 z M 32 30 C 34.767346 30 37 32.232653 37 35 C 37 37.767346 34.767346 40 32 40 C 29.232653 40 27 37.767346 27 35 C 27 32.232653 29.232653 30 32 30 z M 0 36.65625 L 0 43 C 2.2549983 52.067064 8.2660056 59.648018 16.28125 64 L 18.40625 64 C 7.9892551 59.102178 0.6148336 48.769361 0 36.65625 z M 64 36.65625 C 63.385166 48.769361 56.010745 59.102178 45.59375 64 L 47.71875 64 C 55.733994 59.648018 61.745002 52.067064 64 43 L 64 36.65625 z M 0 49.125 L 0 51.53125 C 2.5533036 56.455996 6.1938382 60.726954 10.625 64 L 12.4375 64 C 7.008326 60.334451 2.6730523 55.18195 0 49.125 z M 64 49.125 C 61.326948 55.18195 56.991674 60.334451 51.5625 64 L 53.375 64 C 57.806162 60.726954 61.446696 56.455996 64 51.53125 L 64 49.125 z M 0 55.53125 L 0 57.21875 C 1.7289289 59.704335 3.7217595 61.983106 5.96875 64 L 7.40625 64 C 4.5400424 61.566094 2.0421014 58.705118 0 55.53125 z M 64 55.53125 C 61.957899 58.705118 59.459958 61.566094 56.59375 64 L 58.03125 64 C 60.278241 61.983106 62.271071 59.704335 64 57.21875 L 64 55.53125 z M 0 60.59375 L 0 62 L 2 64 L 3.0625 64 C 1.9824881 62.922303 0.95472343 61.786154 0 60.59375 z M 64 60.59375 C 63.045277 61.786154 62.017512 62.922303 60.9375 64 L 62 64 L 64 62 L 64 60.59375 z "
     id="path3967" />
  <path
     d="M 64,6 62,4 64,3 z"
     id="path3028"
     style="fill:#cb4ad9;fill-opacity:1"
     inkscape:connector-curvature="0" />
  <g
     id="g3043"
     inkscape:export-filename="folder.png"
     inkscape:export-xdpi="90"
     inkscape:export-ydpi="90"
     transform="translate(-0.62500009,0.082283)" />
  <g
     id="scalable"
     transform="matrix(1.0385892,0,0,1.0385892,1214.7222,1878.8121)"
     inkscape:label="#g3701"
     style="fill:#ffffff" />
  <path
     style="color:#000000;fill:#fdc7ff;fill-opacity:0.35152057;fill-rule:nonzero;stroke:none;marker:none;visibility:visible;display:inline;overflow:visible;enable-background:accumulate;stroke-width:2.28571415"
     d="M 3.78125 0 C 2.46914 1.0597943 1.1843309 2.1766171 0 3.375 L 0 4 L 0.75 4 C 2.1752805 2.5640052 3.7022261 1.2299206 5.3125 0 L 3.78125 0 z M 8.75 0 C 6.9482641 1.1997171 5.2465171 2.5437691 3.65625 4 L 5.21875 4 C 6.9258168 2.5244291 8.7510053 1.1803688 10.6875 0 L 8.75 0 z M 14.84375 0 C 12.555226 1.122609 10.380325 2.4668971 8.375 4 L 10 4 C 12.210909 2.427468 14.595732 1.0760242 17.125 0 L 14.84375 0 z M 23.40625 0 C 19.937772 0.85121915 16.680403 2.2228153 13.6875 4 L 15.8125 4 C 20.652497 1.4687423 26.151365 0.03125 32 0.03125 C 37.848636 0.03125 43.347503 1.4687423 48.1875 4 L 50.3125 4 C 47.319597 2.2228153 44.062228 0.85121915 40.59375 0 L 32 0 L 23.40625 0 z M 46.875 0 C 49.404268 1.0760242 51.789091 2.427468 54 4 L 55.625 4 C 53.619675 2.4668971 51.444774 1.122609 49.15625 0 L 46.875 0 z M 53.3125 0 C 55.248995 1.1803688 57.074183 2.5244291 58.78125 4 L 60.34375 4 C 58.753483 2.5437691 57.051736 1.1997171 55.25 0 L 53.3125 0 z M 58.6875 0 C 60.297774 1.2299206 61.824719 2.5640052 63.25 4 L 64 4 L 64 3.375 C 62.815669 2.1766171 61.53086 1.0597943 60.21875 0 L 58.6875 0 z M 32 2.03125 C 28.040634 2.03125 24.235131 2.7232412 20.71875 4 L 23.90625 4 C 26.49496 3.3247658 29.201265 2.96875 32 2.96875 C 34.798735 2.96875 37.50504 3.3247658 40.09375 4 L 43.28125 4 C 39.764869 2.7232412 35.959366 2.03125 32 2.03125 z "
     id="path6502" />
  <path
     style="fill:#fb9bff;fill-opacity:1;fill-rule:nonzero"
     d="M 0,3 0,6 2,4 Z"
     id="path4298"
     inkscape:connector-curvature="0"
     sodipodi:nodetypes="cccc" />
  <path
     style="color:#000000;fill:#d48edf;fill-opacity:1;fill-rule:nonzero;stroke:none;stroke-width:1.5207864;marker:none;visibility:visible;display:inline;overflow:visible;enable-background:accumulate;opacity:1;stroke-linecap:butt;stroke-linejoin:miter;stroke-miterlimit:4;stroke-dasharray:none;stroke-dashoffset:0;stroke-opacity:1"
     d="m 31.84375,12.71875 c -0.459382,0.0074 -0.908311,0.04216 -1.375,0.09375 C 23.157471,13.620687 17.815636,19.641905 18.3125,26.375 L 16.375,26.59375 17.34375,35.4375 18.9375,35.25 c -0.09061,-1.111062 -0.07409,-2.267675 0.03125,-3.46875 0.180371,-2.056654 0.63151,-3.960119 1.3125,-5.625 l -0.09375,0 c -0.383409,-5.766996 4.200777,-10.900889 10.46875,-11.59375 5.924666,-0.654912 11.24703,2.91084 12.5625,8.125 0.0825,0.116958 0.171896,0.223664 0.25,0.34375 1.351191,2.077483 2.259634,4.82338 2.5625,7.875 0.04415,0.444875 0.07717,0.878455 0.09375,1.3125 L 48,32 l -0.96875,-8.875 -1.75,0.1875 C 44.316645,17.103576 38.550341,12.610455 31.84375,12.71875 z"
     id="rect4084"
     inkscape:connector-curvature="0" />
  <path
     inkscape:connector-curvature="0"
     style="color:#000000;fill:#d48edf;fill-opacity:1;fill-rule:nonzero;stroke:none;stroke-width:1.5207864;marker:none;visibility:visible;display:inline;overflow:visible;enable-background:accumulate"
     id="path4800-4-7"
     d="m 27.503709,39.676148 c -1.464899,-3.034666 -1.260611,-21.563951 3.658269,-21.749925 4.91888,-0.185976 6.229698,15.925282 6.707226,20.368069 0.477528,4.442789 -1.100636,8.427867 9.47958,5.990586 4.699818,-1.082659 7.354429,-3.68245 7.030134,2.798442 -0.324296,6.48089 -12.038501,6.670576 -17.572853,7.117959 -14.861282,0.844985 -26.161051,-0.440701 -26.012414,-4.113155 0.148648,-3.672467 0.338,-5.209909 3.068606,-4.711082 18.255236,3.33486 15.242824,-2.38351 13.641452,-5.700894 z" />
  <path
     id="path3963"
     d="m 40.8125,24.53125 c -2.880754,0.266078 -4.768907,4.956731 -4.21875,10.5 0.550157,5.543269 3.337996,9.828578 6.21875,9.5625 2.880754,-0.266078 4.768907,-4.956731 4.21875,-10.5 -0.550157,-5.543269 -3.337996,-9.828578 -6.21875,-9.5625 z m -11.28125,0.8125 c -2.678677,0.302537 -5.106245,4.422621 -5.5625,9.625 -0.486673,5.549203 1.46014,10.204412 4.34375,10.4375 2.883611,0.233087 5.607078,-4.075796 6.09375,-9.625 0.486673,-5.549203 -1.46014,-10.204412 -4.34375,-10.4375 -0.180226,-0.01457 -0.352672,-0.02017 -0.53125,0 z"
     style="color:#000000;fill:#3f0069;fill-opacity:0.17084078;fill-rule:nonzero;stroke:none;stroke-width:4;marker:none;visibility:visible;display:inline;overflow:visible;enable-background:accumulate"
     inkscape:connector-curvature="0" />
  <path
     inkscape:connector-curvature="0"
     style="color:#000000;fill:#ece2ec;fill-opacity:1;fill-rule:nonzero;stroke:none;stroke-width:4;marker:none;visibility:visible;display:inline;overflow:visible;enable-background:accumulate"
     d="m 37.8125,21.53125 c -2.880754,0.266078 -4.768907,4.956731 -4.21875,10.5 0.550157,5.543269 3.337996,9.828578 6.21875,9.5625 2.880754,-0.266078 4.768907,-4.956731 4.21875,-10.5 -0.550157,-5.543269 -3.337996,-9.828578 -6.21875,-9.5625 z m -11.28125,0.8125 c -2.678677,0.302537 -5.106245,4.422621 -5.5625,9.625 -0.486673,5.549203 1.46014,10.204412 4.34375,10.4375 2.883611,0.233087 5.607078,-4.075796 6.09375,-9.625 0.486673,-5.549203 -1.46014,-10.204412 -4.34375,-10.4375 -0.180226,-0.01457 -0.352672,-0.02017 -0.53125,0 z"
     id="path3969" />
  <path
     style="color:#000000;fill:#652f85;fill-opacity:1;fill-rule:nonzero;stroke:none;stroke-width:4;marker:none;visibility:visible;display:inline;overflow:visible;enable-background:accumulate"
     d="m 39,31 c 1.346194,0 2.4375,1.343146 2.4375,3 0,1.656854 -1.091306,3 -2.4375,3 -1.346194,0 -2.4375,-1.343146 -2.4375,-3 0,-1.656854 1.091306,-3 2.4375,-3 z"
     id="path3915"
     inkscape:connector-curvature="0" />
  <path
     style="color:#000000;fill:#652f85;fill-opacity:1;fill-rule:nonzero;stroke:none;stroke-width:4;marker:none;visibility:visible;display:inline;overflow:visible;enable-background:accumulate"
     d="m 26,31.8125 c 1.346106,-0.01541 2.44979,1.312005 2.46875,2.96875 0.01897,1.656747 -1.060144,3.01584 -2.40625,3.03125 -1.346105,0.01541 -2.44979,-1.312004 -2.46875,-2.96875 C 23.57478,33.187005 24.653894,31.82791 26,31.8125 z"
     id="path3887"
     inkscape:connector-curvature="0" />
</svg>

<svg xmlns="http://www.w3.org/2000/svg" viewBox="0 0 64 64"><g color="#000"><path d="m0 4v30 28l2 2h30 30l2-2v-28-30h-32-32" fill="#a324b8"/><path d="m2 0l-2 1v3h32 32v-3l-2-1h-30-30" fill="#fa75ff"/><path d="m0 4v.781c.248-.262.496-.525.75-.781h-.75m3.656 0c-1.295 1.186-2.516 2.443-3.656 3.781v1.625c1.569-1.96 3.32-3.765 5.219-5.406h-1.563m4.719 0c-3.232 2.471-6.05 5.435-8.375 8.781v1.688c2.638-4.1 6.04-7.65 10-10.469h-1.625m5.313 0c-5.802 3.445-10.572 8.459-13.688 14.469v2.406c3.204-7.261 8.814-13.215 15.813-16.875h-2.125m7.03 0c-10.216 3.709-18.06 12.323-20.719 23v6.344c.718-14.15 10.654-25.887 23.906-29.344h-3.188m19.375 0c13.253 3.457 23.19 15.193 23.906 29.344v-6.344c-2.655-10.677-10.503-19.291-20.719-23h-3.188m8.094 0c6.998 3.66 12.608 9.614 15.813 16.875v-2.406c-3.116-6.01-7.885-11.02-13.688-14.469h-2.125m5.813 0c3.963 2.818 7.362 6.369 10 10.469v-1.688c-2.327-3.346-5.143-6.311-8.375-8.781h-1.625m4.781 0c1.898 1.641 3.649 3.446 5.219 5.406v-1.625c-1.14-1.338-2.361-2.595-3.656-3.781h-1.563m4.469 0c.254.256.502.519.75.781v-.781h-.75m-31.25 1c-16.563 0-30 13.437-30 30 0 13.894 9.456 25.592 22.281 29h7.719c-16.02 0-29-12.978-29-29 0-16.02 12.978-29 29-29 16.02 0 29 12.978 29 29 0 16.02-12.978 29-29 29h7.719c12.825-3.408 22.281-15.11 22.281-29 0-16.563-13.437-30-30-30m0 3c-14.906 0-27 12.09-27 27 0 14.906 12.09 27 27 27 14.906 0 27-12.09 27-27 0-14.906-12.09-27-27-27m0 1c14.365 0 26 11.635 26 26 0 14.365-11.635 26-26 26-14.365 0-26-11.635-26-26 0-14.365 11.635-26 26-26m0 2c-13.249 0-24 10.751-24 24 0 13.249 10.751 24 24 24 13.249 0 24-10.751 24-24 0-13.249-10.751-24-24-24m0 1c12.708 0 23 10.292 23 23 0 12.708-10.292 23-23 23-12.708 0-23-10.292-23-23 0-12.708 10.292-23 23-23m-1.094 2c-11.09.564-19.906 9.77-19.906 21 0 11.592 9.408 21 21 21 11.592 0 21-9.408 21-21 0-11.592-9.408-21-21-21-.362 0-.736-.018-1.094 0m1.094 1c11.05 0 20 8.948 20 20 0 11.05-8.948 20-20 20-11.05 0-20-8.948-20-20 0-11.05 8.948-20 20-20m0 2c-9.935 0-18 8.06-18 18 0 9.935 8.06 18 18 18 9.935 0 18-8.06 18-18 0-9.935-8.06-18-18-18m0 1c9.395 0 17 7.605 17 17 0 9.395-7.605 17-17 17-9.395 0-17-7.605-17-17 0-9.395 7.605-17 17-17m0 2c-8.278 0-15 6.722-15 15 0 8.278 6.722 15 15 15 8.278 0 15-6.722 15-15 0-8.278-6.722-15-15-15m0 1c7.738 0 14 6.262 14 14 0 7.738-6.262 14-14 14-7.738 0-14-6.262-14-14 0-7.738 6.262-14 14-14m0 2c-6.621 0-12 5.379-12 12 0 6.621 5.379 12 12 12 6.621 0 12-5.379 12-12 0-6.621-5.379-12-12-12m0 1c6.081 0 11 4.919 11 11 0 6.081-4.919 11-11 11-6.081 0-11-4.919-11-11 0-6.081 4.919-11 11-11m0 2c-4.965 0-9 4.04-9 9 0 4.965 4.04 9 9 9 4.965 0 9-4.04 9-9 0-4.965-4.04-9-9-9m0 1c4.424 0 8 3.576 8 8 0 4.424-3.576 8-8 8-4.424 0-8-3.576-8-8 0-4.424 3.576-8 8-8m0 2c-3.308 0-6 2.692-6 6 0 3.308 2.692 6 6 6 3.308 0 6-2.692 6-6 0-3.308-2.692-6-6-6m0 1c2.767 0 5 2.233 5 5 0 2.767-2.233 5-5 5-2.767 0-5-2.233-5-5 0-2.767 2.233-5 5-5m-32 6.656v6.344c2.255 9.07 8.266 16.648 16.281 21h2.125c-10.417-4.898-17.791-15.231-18.406-27.344m64 0c-.615 12.11-7.989 22.446-18.406 27.344h2.125c8.02-4.352 14.03-11.933 16.281-21v-6.344m-64 12.469v2.406c2.553 4.925 6.194 9.196 10.625 12.469h1.813c-5.429-3.666-9.764-8.818-12.438-14.875m64 0c-2.673 6.06-7.01 11.209-12.438 14.875h1.813c4.431-3.273 8.07-7.544 10.625-12.469v-2.406m-64 6.406v1.688c1.729 2.486 3.722 4.764 5.969 6.781h1.438c-2.866-2.434-5.364-5.295-7.406-8.469m64 0c-2.042 3.174-4.54 6.03-7.406 8.469h1.438c2.247-2.02 4.24-4.296 5.969-6.781v-1.688m-64 5.063v1.406l2 2h1.063c-1.08-1.078-2.108-2.214-3.063-3.406m64 0c-.955 1.192-1.982 2.329-3.063 3.406h1.063l2-2v-1.406" fill-opacity=".22" fill="#fa88ff"/></g><path d="m64 6l-2-2 2-1z" fill="#cb4ad9"/><path d="m3.781 0c-1.312 1.06-2.597 2.177-3.781 3.375v.625h.75c1.425-1.436 2.952-2.77 4.563-4h-1.531m4.969 0c-1.802 1.2-3.503 2.544-5.094 4h1.563c1.707-1.476 3.532-2.82 5.469-4h-1.938m6.094 0c-2.289 1.123-4.463 2.467-6.469 4h1.625c2.211-1.573 4.596-2.924 7.125-4h-2.281m8.563 0c-3.468.851-6.726 2.223-9.719 4h2.125c4.84-2.531 10.339-3.969 16.188-3.969 5.849 0 11.348 1.437 16.188 3.969h2.125c-2.993-1.777-6.25-3.149-9.719-4h-8.594-8.594m23.469 0c2.529 1.076 4.914 2.427 7.125 4h1.625c-2.01-1.533-4.18-2.877-6.469-4h-2.281m6.438 0c1.936 1.18 3.762 2.524 5.469 4h1.563c-1.59-1.456-3.292-2.8-5.094-4h-1.938m5.375 0c1.61 1.23 3.137 2.564 4.563 4h.75v-.625c-1.184-1.198-2.469-2.315-3.781-3.375h-1.531m-26.688 2.031c-3.959 0-7.765.692-11.281 1.969h3.188c2.589-.675 5.295-1.031 8.094-1.031 2.799 0 5.505.356 8.094 1.031h3.188c-3.516-1.277-7.322-1.969-11.281-1.969" fill="#fdc7ff" fill-opacity=".352" color="#000"/><path d="m0 3v3l2-2" fill="#fb9bff"/><g color="#000"><g fill="#d48edf"><path d="m31.844 12.719c-.459.007-.908.042-1.375.094-7.311.808-12.653 6.829-12.156 13.563l-1.938.219.969 8.844 1.594-.188c-.091-1.111-.074-2.268.031-3.469.18-2.057.632-3.96 1.313-5.625h-.094c-.383-5.767 4.201-10.901 10.469-11.594 5.925-.655 11.247 2.911 12.563 8.125.083.117.172.224.25.344 1.351 2.077 2.26 4.823 2.563 7.875.044.445.077.878.094 1.313l1.875-.219-.969-8.875-1.75.188c-.965-6.209-6.731-10.702-13.438-10.594"/><path d="m27.504 39.676c-1.465-3.035-1.261-21.564 3.658-21.75 4.919-.186 6.23 15.925 6.707 20.368.478 4.443-1.101 8.428 9.48 5.991 4.7-1.083 7.354-3.682 7.03 2.798-.324 6.481-12.04 6.671-17.573 7.118-14.861.845-26.16-.441-26.01-4.113.149-3.672.338-5.21 3.069-4.711 18.255 3.335 15.243-2.384 13.641-5.701"/></g><path d="m40.813 24.531c-2.881.266-4.769 4.957-4.219 10.5.55 5.543 3.338 9.829 6.219 9.563 2.881-.266 4.769-4.957 4.219-10.5-.55-5.543-3.338-9.829-6.219-9.563m-11.281.813c-2.679.303-5.106 4.423-5.563 9.625-.487 5.549 1.46 10.204 4.344 10.438 2.884.233 5.607-4.076 6.094-9.625.487-5.549-1.46-10.204-4.344-10.438-.18-.015-.353-.02-.531 0" fill="#3f0069" fill-opacity=".171"/><path d="m37.813 21.531c-2.881.266-4.769 4.957-4.219 10.5.55 5.543 3.338 9.829 6.219 9.563 2.881-.266 4.769-4.957 4.219-10.5-.55-5.543-3.338-9.829-6.219-9.563m-11.281.813c-2.679.303-5.106 4.423-5.563 9.625-.487 5.549 1.46 10.204 4.344 10.438 2.884.233 5.607-4.076 6.094-9.625.487-5.549-1.46-10.204-4.344-10.438-.18-.015-.353-.02-.531 0" fill="#ece2ec"/><g fill="#652f85"><path d="m39 31c1.346 0 2.438 1.343 2.438 3 0 1.657-1.091 3-2.438 3-1.346 0-2.438-1.343-2.438-3 0-1.657 1.091-3 2.438-3"/><path d="m26 31.813c1.346-.015 2.45 1.312 2.469 2.969.019 1.657-1.06 3.02-2.406 3.03-1.346.015-2.45-1.312-2.469-2.969-.019-1.657 1.06-3.02 2.406-3.03"/></g></g></svg>
